!! George Gerswhin, "Fascinating Rhythm" from
!! "Bumper Book of George Gerswhin,"
!! London: Chappell Music Ltd., 1987; pp.82-85
**kern
*M4/4
*MM[moderato]
=1
8.e-
16e-
8.f
16e-
4g-
8.f
16e-
=2
4g-
8.f
16e-
4g-
4f
=3
8.r
16e-
8.f
16e-
8.g-
16f
4e-
=4
1b-
=5
8.r
16e-
8.f
16e-
4g-
8.f
16e-
!! page 81
=6
4g-
8.f
16e-
4g-
4f
=7
8.r
16e-
8.f
16g-
8.a-
16b-
4g
=8
1e-
=9
8.r
16b-
8.cc
16b-
4dd-
8.cc
16b-
=10
4dd-
8.cc
16b-
4dd-
4cc
=11
8.r
16b-
8.cc
16b-
(8.dd-
16cc)
4b-
=12
1ff
=13
8.r
16b-
8.cc
16b-
8.dd-
16cc
8.cc
16b-
=14
8.r
16cc
8.dd-
16cc
8.ee-
16dd-
8.dd-
16cc
=15
8.r
16f
8.g
16f
8.an
16g
8.g
16f
=16
2.b-
4r
!! page 84
!! Refrain
=17
8f
8a-
8g
8f
8b-
8b-
8r
8f
=18
8a-
8g
8f
8b-
8b-
8r
8f
8a-
=19
8g
8f
8b-
8b-
8r
8f
8a-
8g
=20
4f
2.B-
=21
8b-
8dd-
8cc
8b-
8ee-
8ee-
8r
8b-
=22
8dd-
8cc
8b-
8ee-
8ee-
8r
8b-
8dd-
=23
8cc
8b-
8ee-
8ee-
8r
8b-
8dd-
8cc
=24
4b-
2.e-
=25
4r
4e-
4a-
4b-
=26
4cc
8b-
[8dd
8dd]
8b-
4cc
=27
1g
=28
8b-
8g
8g
8g
8b-
8g
8g
8g
=29
4r
4e-
4g
4b-
=30
4ee-
8dd
[8ff
8ff]
8cc
4dd
=31
1b-
=32
4r
4cc
4a-
4g
=33
8f
8a-
8g
8f
8b-
8b-
8r
8f
!! page 85
=34
8a-
8g
8f
8b-
8b-
8r
8f
8a-
=35
8g
8f
8b-
8b-
8r
8f
8a-
8g
=36
4f
2B-
4r
=37
8b-
8dd-
8cc
8b-
8ee-
8ee-
8r
8b-
=38
8dd-
8cc
8b-
8ee-
8ee-
8r
8b-
8dd-
=39
8cc
8b-
8ee-
8ee-
8r
8b-
8dd-
8cc
=40
4b-
2.e-
=41
4r
4e-
4a-
4b-
=42
4cc
8cc
[8ddn
8dd]
8cc
4dd
=43
4r
4ee-
8ff
4.dd
=44
1cc
=45
8f
8a-
8g
8f
8b-
8b-
8r
8f
=46
8a-
8g
8f
[8cc
8cc]
8ee-
4g
=47
!! First ending.
1e-
=48
1r
!! page 84
!! Repeat refrain.
=17
8f
8a-
8g
8f
8b-
8b-
8r
8f
=18
8a-
8g
8f
8b-
8b-
8r
8f
8a-
=19
8g
8f
8b-
8b-
8r
8f
8a-
8g
=20
4f
2.B-
=21
8b-
8dd-
8cc
8b-
8ee-
8ee-
8r
8b-
=22
8dd-
8cc
8b-
8ee-
8ee-
8r
8b-
8dd-
=23
8cc
8b-
8ee-
8ee-
8r
8b-
8dd-
8cc
=24
4b-
2.e-
=25
4r
4e-
4a-
4b-
=26
4cc
8b-
[8dd
8dd]
8b-
4cc
=27
1g
=28
8b-
8g
8g
8g
8b-
8g
8g
8g
=29
4r
4e-
4g
4b-
=30
4ee-
8dd
[8ff
8ff]
8cc
4dd
=31
1b-
=32
4r
4cc
4a-
4g
=33
8f
8a-
8g
8f
8b-
8b-
8r
8f
!! page 85
=34
8a-
8g
8f
8b-
8b-
8r
8f
8a-
=35
8g
8f
8b-
8b-
8r
8f
8a-
8g
=36
4f
2B-
4r
=37
8b-
8dd-
8cc
8b-
8ee-
8ee-
8r
8b-
=38
8dd-
8cc
8b-
8ee-
8ee-
8r
8b-
8dd-
=39
8cc
8b-
8ee-
8ee-
8r
8b-
8dd-
8cc
=40
4b-
2.e-
=41
4r
4e-
4a-
4b-
=42
4cc
8cc
[8ddn
8dd]
8cc
4dd
=43
4r
4ee-
8ff
4.dd
=44
1cc
=45
8f
8a-
8g
8f
8b-
8b-
8r
8f
=46
8a-
8g
8f
[8cc
8cc]
8ee-
4g
=47
!! Second ending.
1e-
=48
8e-
8r
4r
2r
====
*-
